X: 26674
T: Midnight Walker
R: waltz
M: 3/4
K: Gmajor
M:4/4
|:A2JB6-|B2dJg3-g2-|g{a}gfJe4d-|dB4-B3-|B6zd|Jg4{a}gfJa2-|a4GAB2-|B8-|
B2JB3dJg2-|g3{a}gfJe3-|e{a}ed3eJB2-|B8-|Bd2Jg3-g2|fJa3{a}agB2-|
B8-|B3{c}Bd2Ja2-|a2g3ag/a/g|f3-f2Jg/a/gf|e8|f2Jg{a}gfed2-|d8|
BJc{d}cB{c}BA3-|A8-|AJB3dJa3|{c'}ag4ag/a/g|f4Ja{c'}afe-|e8-|e/f/g/a/g{a}gfe{a}e{a}e|
d6eB|Jc2{e}cB{c}BA3-|A8-|{c}A/G/F/A/{c}A/G/FJG4-|G8-|G8-|G8:|
JA3{c}A (3GFAF2-|F3-F2{A}F3-|F{A}FEAD4-|D6JB{c}B|Ac2{a}cBA/{c}A/G>F|JG8-|
G3A/{c}A/GEJF2-|F3-F2EF2-|F3GB{c}BA2-|A4-A3d-|d3eB{c}BAJG-|G8|

